web/public/images/ic-breadcrumb-pipeline-grey.svg

<svg width="15" height="13" viewBox="0 0 15 13" fill="none" xmlns="http://www.w3.org/2000/svg">
<path d="M14.1118 0.505859L9.89637 0.505859V2.20246L4.78052 2.20246V0.505859L0.539011 0.505859V4.74736H4.78052L4.78048 3.05076H6.47712C6.47712 3.05076 6.47712 7.29227 6.47712 8.14057C6.47708 9.57208 7.74953 10.6855 9.13387 10.6656C9.92683 10.7152 8.49851 10.6875 9.87028 10.6855V12.3821H14.1118V8.14057H9.87028V9.83717C8.48798 9.83899 9.91228 9.86347 9.1734 9.81729C8.17368 9.81729 7.29565 8.78342 7.29565 8.14057C7.23509 7.30734 7.29523 4.6268 7.29565 3.07064H9.89637V4.74736H14.1118V0.505859Z" fill="#C6C6C6"/>
</svg>

<svg xmlns="http://www.w3.org/2000/svg" width="15" height="13" fill="none"><path fill="#C6C6C6" d="M14.112.506H9.896v1.696H4.781V.506H.539v4.241h4.242V3.051h1.696v5.09c0 1.431 1.273 2.544 2.657 2.525.793.05-.635.021.736.02v1.696h4.242V8.141H9.87v1.696c-1.382.002.042.026-.697-.02-1 0-1.877-1.034-1.877-1.676-.06-.834 0-3.514 0-5.07h2.6v1.676h4.216z"/></svg>
